**harm	**harte	**timestamp	**phrase	**leadinstrument	**kern
*M4/4	*M4/4	*	*	*	*
*e:	*e:	*	*	*	*e:
1r;	N	0	.	r	1r;
=1	=1	=1	=1	=1	=1
*>A2_intro	*>A2_intro	*>A2_intro	*>A2_intro	*>A2_intro	*>A2_intro
1i	E:min	0.52	newline	strings	1E 1g 1b
=2	=2	=2	=2	=2	=2
1i	E:min	2.639	.	strings	1E 1g 1b
=3	=3	=3	=3	=3	=3
*>B_verse	*>B_verse	*>B_verse	*>B_verse	*>B_verse	*>B_verse
1i	E:min	4.758	newline	voice	1E 1g 1b
=4	=4	=4	=4	=4	=4
1i	E:min	6.883	.	voice	1E 1g 1b
=5	=5	=5	=5	=5	=5
1-VIm7	C:7	9.008	.	voice	1C- 1e- 1g- 1b
=6	=6	=6	=6	=6	=6
2-VIm7	C:7	11.133	.	voice	2C- 2e- 2g- 2b
2i	E:min	12.196	.	voice	2E 2g 2b
=7	=7	=7	=7	=7	=7
1i	E:min	13.259	newline	voice	1E 1g 1b
=8	=8	=8	=8	=8	=8
1i	E:min	15.337	.	voice	1E 1g 1b
=9	=9	=9	=9	=9	=9
1-VIm7	C:7	17.415	.	voice	1C- 1e- 1g- 1b
=10	=10	=10	=10	=10	=10
2-VIm7	C:7	19.493	.	voice	2C- 2e- 2g- 2b
2i	E:min	20.532	.	voice	2E 2g 2b
=11	=11	=11	=11	=11	=11
*>C_chorus	*>C_chorus	*>C_chorus	*>C_chorus	*>C_chorus	*>C_chorus
1i7	E:min7	21.571	newline	voice	1E 1g 1b 1dd#
=12	=12	=12	=12	=12	=12
1i	E:min6	23.684	.	voice	1E 1g 1b
=13	=13	=13	=13	=13	=13
1i	E:min(b13)	25.797	.	voice	1E 1g 1b
=14	=14	=14	=14	=14	=14
1i	E:min	27.91	.	voice	1E 1g 1b
=15	=15	=15	=15	=15	=15
1i7	E:min7	30.023	newline	voice	1E 1g 1b 1dd#
=16	=16	=16	=16	=16	=16
1i	E:min6	32.125	.	voice	1E 1g 1b
=17	=17	=17	=17	=17	=17
1i	E:min(b13)	34.226	.	voice	1E 1g 1b
=18	=18	=18	=18	=18	=18
1i	E:min	36.328	.	voice	1E 1g 1b
=19	=19	=19	=19	=19	=19
*>A_interlude	*>A_interlude	*>A_interlude	*>A_interlude	*>A_interlude	*>A_interlude
1-VIm7	C:7	38.429	newline	voice	1C- 1e- 1g- 1b
=20	=20	=20	=20	=20	=20
1-VIm7	C:7	40.467	.	voice	1C- 1e- 1g- 1b
=21	=21	=21	=21	=21	=21
1i	E:min	42.504	.	voice	1E 1g 1b
=22	=22	=22	=22	=22	=22
1i	E:min	44.542	.	voice	1E 1g 1b
=23	=23	=23	=23	=23	=23
1iv	A:min	46.579	newline	voice	1A 1cc 1ee
=24	=24	=24	=24	=24	=24
1iv	A:min	48.663	.	voice	1A 1cc 1ee
=25	=25	=25	=25	=25	=25
1i	E:min	50.747	.	voice	1E 1g 1b
=26	=26	=26	=26	=26	=26
1i	E:min	52.831	.	voice	1E 1g 1b
=27	=27	=27	=27	=27	=27
*>B_verse	*>B_verse	*>B_verse	*>B_verse	*>B_verse	*>B_verse
1i	E:min	54.915	newline	voice	1E 1g 1b
=28	=28	=28	=28	=28	=28
1i	E:min	56.964	.	voice	1E 1g 1b
=29	=29	=29	=29	=29	=29
1-VIm7	C:7	59.014	.	voice	1C- 1e- 1g- 1b
=30	=30	=30	=30	=30	=30
2-VIm7	C:7	61.063	.	voice	2C- 2e- 2g- 2b
2i	E:min	62.087	.	voice	2E 2g 2b
=31	=31	=31	=31	=31	=31
1i	E:min	63.112	newline	voice	1E 1g 1b
=32	=32	=32	=32	=32	=32
1i	E:min	65.202	.	voice	1E 1g 1b
=33	=33	=33	=33	=33	=33
1-VIm7	C:7	67.291	.	voice	1C- 1e- 1g- 1b
=34	=34	=34	=34	=34	=34
2-VIm7	C:7	69.381	.	voice	2C- 2e- 2g- 2b
2i	E:min	70.426	.	voice	2E 2g 2b
=35	=35	=35	=35	=35	=35
*>C_chorus	*>C_chorus	*>C_chorus	*>C_chorus	*>C_chorus	*>C_chorus
1i7	E:min7	71.471	newline	voice	1E 1g 1b 1dd#
=36	=36	=36	=36	=36	=36
1i	E:min6	73.52	.	voice	1E 1g 1b
=37	=37	=37	=37	=37	=37
1i	E:min(b13)	75.569	.	voice	1E 1g 1b
=38	=38	=38	=38	=38	=38
1i	E:min	77.619	.	voice	1E 1g 1b
=39	=39	=39	=39	=39	=39
1i7	E:min7	79.668	newline	voice	1E 1g 1b 1dd#
=40	=40	=40	=40	=40	=40
1i	E:min6	81.717	.	voice	1E 1g 1b
=41	=41	=41	=41	=41	=41
1i	E:min(b13)	83.766	.	voice	1E 1g 1b
=42	=42	=42	=42	=42	=42
1i	E:min	85.815	.	voice	1E 1g 1b
=43	=43	=43	=43	=43	=43
*>A_interlude	*>A_interlude	*>A_interlude	*>A_interlude	*>A_interlude	*>A_interlude
1-VIm7	C:7	87.864	newline	voice	1C- 1e- 1g- 1b
=44	=44	=44	=44	=44	=44
1-VIm7	C:7	89.867	.	voice	1C- 1e- 1g- 1b
=45	=45	=45	=45	=45	=45
1i	E:min	91.87	.	voice	1E 1g 1b
=46	=46	=46	=46	=46	=46
1i	E:min	93.872	.	voice	1E 1g 1b
=47	=47	=47	=47	=47	=47
1iv	A:min	95.875	newline	voice	1A 1cc 1ee
=48	=48	=48	=48	=48	=48
1iv	A:min	97.919	.	voice	1A 1cc 1ee
=49	=49	=49	=49	=49	=49
1i	E:min	99.962	.	voice	1E 1g 1b
=50	=50	=50	=50	=50	=50
1i	E:min	102.005	.	voice	1E 1g 1b
=51	=51	=51	=51	=51	=51
*>B_verse	*>B_verse	*>B_verse	*>B_verse	*>B_verse	*>B_verse
1i	E:min	104.049	newline	voice	1E 1g 1b
=52	=52	=52	=52	=52	=52
1i	E:min	106.109	.	voice	1E 1g 1b
=53	=53	=53	=53	=53	=53
1-VIm7	C:7	108.17	.	voice	1C- 1e- 1g- 1b
=54	=54	=54	=54	=54	=54
2-VIm7	C:7	110.231	.	voice	2C- 2e- 2g- 2b
2i	E:min	111.261	.	voice	2E 2g 2b
=55	=55	=55	=55	=55	=55
1i	E:min	112.292	newline	voice	1E 1g 1b
=56	=56	=56	=56	=56	=56
1i	E:min	114.347	.	voice	1E 1g 1b
=57	=57	=57	=57	=57	=57
1-VIm7	C:7	116.402	.	voice	1C- 1e- 1g- 1b
=58	=58	=58	=58	=58	=58
2-VIm7	C:7	118.457	.	voice	2C- 2e- 2g- 2b
2i	E:min	119.484	.	voice	2E 2g 2b
=59	=59	=59	=59	=59	=59
*>C_chorus	*>C_chorus	*>C_chorus	*>C_chorus	*>C_chorus	*>C_chorus
1i7	E:min7	120.512	newline	voice	1E 1g 1b 1dd#
=60	=60	=60	=60	=60	=60
1i	E:min6	122.584	.	voice	1E 1g 1b
=61	=61	=61	=61	=61	=61
1i	E:min(b13)	124.656	.	voice	1E 1g 1b
=62	=62	=62	=62	=62	=62
1i	E:min	126.729	.	voice	1E 1g 1b
=63	=63	=63	=63	=63	=63
1i7	E:min7	128.801	newline	voice	1E 1g 1b 1dd#
=64	=64	=64	=64	=64	=64
1i	E:min6	130.879	.	voice	1E 1g 1b
=65	=65	=65	=65	=65	=65
1i	E:min(b13)	132.957	.	voice	1E 1g 1b
=66	=66	=66	=66	=66	=66
1i	E:min	135.036	.	voice	1E 1g 1b
=67	=67	=67	=67	=67	=67
*>A_interlude	*>A_interlude	*>A_interlude	*>A_interlude	*>A_interlude	*>A_interlude
1-VIm7	C:7	137.114	newline	voice	1C- 1e- 1g- 1b
=68	=68	=68	=68	=68	=68
1-VIm7	C:7	139.117	.	voice	1C- 1e- 1g- 1b
=69	=69	=69	=69	=69	=69
1i	E:min	141.119	.	voice	1E 1g 1b
=70	=70	=70	=70	=70	=70
1i	E:min	143.122	.	voice	1E 1g 1b
=71	=71	=71	=71	=71	=71
1iv	A:min	145.125	newline	voice	1A 1cc 1ee
=72	=72	=72	=72	=72	=72
1iv	A:min	147.191	.	voice	1A 1cc 1ee
=73	=73	=73	=73	=73	=73
1i	E:min	149.258	.	voice	1E 1g 1b
=74	=74	=74	=74	=74	=74
1i	E:min	151.324	.	voice	1E 1g 1b
=75	=75	=75	=75	=75	=75
*>C_chorus	*>C_chorus	*>C_chorus	*>C_chorus	*>C_chorus	*>C_chorus
1i7	E:min7	153.391	newline	voice	1E 1g 1b 1dd#
=76	=76	=76	=76	=76	=76
1i	E:min6	155.498	.	voice	1E 1g 1b
=77	=77	=77	=77	=77	=77
1i	E:min(b13)	157.605	.	voice	1E 1g 1b
=78	=78	=78	=78	=78	=78
1i	E:min	159.713	.	voice	1E 1g 1b
=79	=79	=79	=79	=79	=79
1i7	E:min7	161.82	newline	voice	1E 1g 1b 1dd#
=80	=80	=80	=80	=80	=80
1i	E:min6	163.933	.	voice	1E 1g 1b
=81	=81	=81	=81	=81	=81
1i	E:min(b13)	166.046	.	voice	1E 1g 1b
=82	=82	=82	=82	=82	=82
1i	E:min	168.159	.	voice	1E 1g 1b
1r;	N	170.272	.	r	1r;
1r;	N	176.611	.	r	1r;
1r;	N	180.323	.	r	1r;
*-	*-	*-	*-	*-	*-
!!!OTL: Eleanor Rigby
!!!COC: Ray Charles
!!!BillboardChartDate: 1968/06/29
!!!BillboardPeak: 35
!!!BillboardWeeksOnChart: 10
!!!SampleTargetRank: 54
!!!SampleActualRank: 53
!!!SampleID#: 0933
!!!RDF**harmony: **recip + pitch class of root + harmonic quality
!!!RDF**harte: Chris Harte's syntax, used by MIREX
!!!RDF**phrase: newline = linebreak in original McGill transcription
!!!RDF**timestamp: McGill audio timestamp in seconds
!!!RDF**leadinstrument: original McGill primary instrumentation annotation
!!!RDT: 2017/01/12/
!!!ENC: Nathaniel Condit-Schultz
!!!EST: Awating manual error checking and editing.
